X:1
T:Wake, Sweetest Strain
T:Wake, Sweetest Strain
T:Isaac Hickman Meredith
T:Grant Colfax Tullar, 1903
T:Public Domain Courtesy of the Cyber Hymnal™
T:Public Domain Courtesy of the Cyber Hymnal™
C:Isaac Hickman Meredith
Z:Public Domain
Z:Courtesy of the Cyber Hymnal™
%%score ( 1 2 ) ( 3 4 )
L:1/8
Q:1/4=115
M:4/4
K:Ab
V:1 treble 
V:2 treble 
V:3 bass 
V:4 bass 
V:1
 c6 ([CE]2 [CE]2) BA | E6 FG | [CEB]2 [CEA]2 [EFd]2 [EFc]2 | B4 [DF]2 [DF]4 | d6 ([DF]2 [DF]2) cB | %5
w: 1.~Low in * the grave|* they had|bu- ried Christ the|Sav- ior; Dark|* was * the night|
w: 2.~Close to * the tomb|* were the|sol- diers vi- gil|keep- ing, When|* from * a- bove|
w: 3.~Joy to * the world,|* let this|day be filled with|glad- ness— Wake|* sweet- * est strains|
 F6 GA | [DB]2 [D=A]2 [DB]2 [D=B]2 | [CEc]6 z2 | c6 ([CE]2 [CE]2) BA | E6 FG | %10
w: * round the|si- lent guard- ed|tomb,|But with * the dawn|* came a|
w: * came a|form of daz- zling|light,|Then He * a- rose|* from the|
w: * join this|hap- py Eas- ter|song,|Peace shall * a- bide|* for the|
 [CEB]2 [CEA]2 [EFd]2 [EFc]2 | B4 [DF]2 [DF]4 |!ff! !>![Ff]4 !>![A_f]4 | [Ae]2 d2 A2 F2 | %14
w: glow of heav’n- ly|splen- dor Glo-|* ry|filled the earth dis-|
w: grave a might- y|vic- tor An-|* gels|wel- comed Him in|
w: grave has lost its|ter- ror Christ|* is|ris- en— let His|
 [DE]4 [DB]4 | [CA]6 z2 ||"^Refrain" [ce]6 [=B=d][ce] | [df]2 [ce]2 [Bd]2 [Ac]2 | %18
w: pel- ling|gloom.|||
w: robes of|white.|Wake, sweet- est|strains of mu- sic!|
w: praise pro-|long.|||
 [FB]2 [DF]2 [D=E]2 [DF]2 | [=DB]4 [DA]4 | [DA]2 [DG]2 [DG]2 [Dd]2 | [Dd]2 [DF]2 [DG]2 [DF]2 | %22
w: ||||
w: Tel- ling out the|sto- ry|How from death the|Sav- ior rose To|
w: ||||
 [CF]2 [CE]2 [EA]2 [Ed]2 | ([Ec]2- [CE-c-]2 [EFc]2 E2) | [ce]6 [=B=d][ce] | %25
w: |||
w: live for- ev- er-|more. * * *|Wake, sweet- est|
w: |||
 [df]2 [ce]2 [Bd]2 [Ac]2 | [Fc]2 [FB]2 [FB]2 [Fc]2 | [Fe]2 [Fd]2 [Fc]2 [FB]2 | %28
w: |||
w: strains of mu- sic!|Drive a- way all|sad- ness Let your|
w: |||
 [EA]2 [CE]2 [=B,=D]2 [CE]2 | [Ec]4 [DB]4 | [CA]8- | [CA]6 z2 |] %32
w: ||||
w: an- thems ring from|shore to|shore.||
w: ||||
V:2
 [CE]2 x10 | (C2 C2 C2) x2 | x8 | [DF]2 x8 | [DF]2 x10 | (D2 D2 D2) x2 | x8 | x8 | [CE]2 x10 | %9
 (C2 C2 C2) x2 | x8 | [DF]2 x8 | x8 | x2 d2 A2 F2 | x8 | x8 || x8 | x8 | x8 | x8 | x8 | x8 | x8 | %23
 x8 | x8 | x8 | x8 | x8 | x8 | x8 | x8 | x8 |] %32
V:3
 ([A,,E,A,]2 [A,,E,A,]2 [A,,E,A,]2) z2 x4 | ([A,,E,A,]2 [A,,E,A,]2 [A,,E,A,]2) z2 | %2
 [A,,E,A,]2 [A,,E,A,]2 [F,=A,]2 [F,A,]2 | ([B,,F,B,]2 [B,,F,B,]2) [B,,F,B,]4 x2 | %4
 ([B,,F,B,]2 [B,,F,B,]2 [B,,F,B,]2) z2 x4 | ([B,,F,B,]2 [B,,F,B,]2 [B,,F,B,]2) z2 | %6
 [E,G,]2 [E,^F,]2 [E,G,]2 [E,=F,]2 | ([A,,E,]2 [E,,E,]2 [A,,E,]2) z2 | %8
 ([A,,E,A,]2 [A,,E,A,]2 [A,,E,A,]2) z2 x4 | ([A,,E,A,]2 [A,,E,A,]2 [A,,E,A,]2) z2 | %10
 [A,,E,A,]2 [A,,E,A,]2 [F,=A,]2 [F,A,]2 | ([B,,F,B,]2 [B,,F,B,]2) [B,,F,B,]4 x2 | %12
 [D,A,]4 [=D,=B,]4 | [E,C]2 C2 A,2 F,2 | [E,G,]4 [E,G,]4 | [A,,A,]6 z2 || %16
 (A,,2 [E,A,C]2 [E,A,C]2) [E,A,C]2 | A,,2 [E,A,C]2 [E,A,C]2 [E,A,C]2 | %18
 D,,2 [D,F,A,]2 [D,F,A,]2 [D,F,A,]2 | (B,,2 F,2) (B,2 F,2) | E,,2 [E,B,]2 [E,B,]2 [E,G,]2 | %21
 E,,2 [E,B,]2 [E,B,]2 [E,G,]2 | [A,,A,]2 [A,,A,]2 [C,A,]2 [B,,G,]2 | %23
 ([A,,A,]2 !>!C,2 !>!F,2 !>!E,2) | (A,,2 [E,A,C]2 [E,A,C]2) [E,A,C]2 | %25
 A,,2 [E,A,C]2 [E,A,C]2 [E,A,C]2 | [D,D]2 [D,D]2 [D,D]2 [C,=A,]2 | %27
 [B,,B,]2 [B,,B,]2 [C,=A,]2 [D,B,]2 | [E,C]2 [E,A,]2 [F,A,]2 [E,A,]2 | (E,,2 E,2) (F,2 G,2) | %30
 (A,2 F,2 E,2 C,2 | [A,,E,]6) z2 |] %32
V:4
 x12 | x8 | x8 | x10 | x12 | x8 | x8 | x8 | x12 | x8 | x8 | x10 | x8 | x2 C2 A,2 F,2 | x8 | x8 || %16
 A,,2 x6 | x8 | D,,2 x6 | x8 | E,,2 x6 | E,,2 x6 | x8 | x8 | x8 | A,,2 x6 | x8 | x8 | x8 | x8 | %30
 x8 | x8 |] %32

